; generated by PrusaSlicer 2.6.0-alpha2+win64 on 2024-02-01 at 13:50:00 UTC

; 

; external perimeters extrusion width = 0.42mm
; perimeters extrusion width = 0.44mm
; infill extrusion width = 0.44mm
; solid infill extrusion width = 0.44mm
; top infill extrusion width = 0.40mm
; first layer extrusion width = 0.42mm

M201 X500 Y500 Z100 E5000 ; sets maximum accelerations, mm/sec^2
M203 X500 Y500 Z10 E60 ; sets maximum feedrates, mm / sec
M204 P500 R1000 T500 ; sets acceleration (P, T) and retract acceleration (R), mm/sec^2
M205 X8.00 Y8.00 Z0.40 E5.00 ; sets the jerk limits, mm/sec
M205 S0 T0 ; sets the minimum extruding and travel feed rate, mm/sec
M107
;TYPE:Custom
G90 ; use absolute coordinates
M83 ; extruder relative mode
M104 S150 ; set temporary nozzle temp to prevent oozing during homing
M140 S70 ; set final bed temp
G4 S30 ; allow partial nozzle warmup
G28 ; home all axis
G1 Z50 F240
G1 X2.0 Y10 F3000
M104 S245 ; set final nozzle temp
M190 S70 ; wait for bed temp to stabilize
M109 S245 ; wait for nozzle temp to stabilize
G1 Z0.28 F240
G92 E0
G1 X2.0 Y140 E10 F1500 ; prime the nozzle
G1 X2.3 Y140 F5000
G92 E0
G1 X2.3 Y10 E10 F1200 ; prime the nozzle
G92 E0
G21 ; set units to millimeters
G90 ; use absolute coordinates
M83 ; use relative distances for extrusion
; Filament gcode
M107
;LAYER_CHANGE
;Z:0.32
;HEIGHT:0.32
;BEFORE_LAYER_CHANGE
G92 E0
;0.32


G1 E-5 F3600
G1 Z.32 F9000
;AFTER_LAYER_CHANGE
;0.32
G1 X80.659 Y86.98
G1 E5 F2400
M204 S500
;TYPE:Skirt/Brim
;WIDTH:0.42
G1 F1200
G1 X82.053 Y86.144 E.07598
G1 X83.029 Y85.999 E.04612
G1 X136.971 Y85.999 E2.52129
G1 X138.548 Y86.393 E.07598
G1 X139.341 Y86.98 E.04612
G1 X142.27 Y89.909 E.19361
G1 X143.106 Y91.303 E.07598
G1 X143.251 Y92.279 E.04612
G1 X143.237 Y119.89 E1.29056
G1 X143.068 Y121.57 E.07892
G1 X142.732 Y123.131 E.07463
G1 X142.179 Y124.773 E.08098
G1 X141.458 Y126.299 E.07889
G1 X140.62 Y127.659 E.07467
G1 X139.317 Y129.279 E.09717
G1 X138.101 Y130.449 E.07887
G1 X136.834 Y131.422 E.07467
G1 X135.269 Y132.356 E.08519
G1 X133.274 Y133.207 E.10138
G1 X131.516 Y133.689 E.0852
G1 X129.366 Y133.976 E.10138
G1 X90.634 Y133.976 E1.81036
G1 X89.047 Y133.796 E.07465
G1 X87.488 Y133.446 E.07468
G1 X85.977 Y132.929 E.07465
G1 X84.451 Y132.208 E.07889
G1 X83.091 Y131.37 E.07467
G1 X81.471 Y130.067 E.09717
G1 X80.301 Y128.851 E.07887
G1 X79.329 Y127.584 E.07464
G1 X78.394 Y126.019 E.08521
G1 X77.543 Y124.024 E.10138
G1 X77.061 Y122.266 E.0852
G1 X76.78 Y120.207 E.09713
G1 X76.749 Y92.279 E1.30538
G1 X77.143 Y90.702 E.07598
G1 X77.73 Y89.909 E.04612
G1 X80.617 Y87.023 E.1908
G1 E-3.5 F3600
;WIPE_START
G1 F7200
G1 X82.053 Y86.144 E-.79974
G1 X83.029 Y85.999 E-.46869
G1 X83.517 Y85.999 E-.23157
;WIPE_END
G1 X82.724 Y90.198 F9000
G1 E5 F2400
G1 F1200
G1 X84.576 Y89.607 E.09086
G1 X135.37 Y89.61 E2.37415
G1 X136.323 Y89.792 E.04535
G1 X137.247 Y90.186 E.04695
G1 X138.506 Y91.239 E.07672
G1 X139.273 Y92.437 E.06649
G1 X139.627 Y93.776 E.06474
G1 X139.627 Y119.838 E1.21816
G1 X139.522 Y120.877 E.04881
G1 X139.392 Y121.605 E.03457
G1 X139.076 Y122.757 E.05583
G1 X138.628 Y123.894 E.05712
G1 X138.137 Y124.842 E.0499
G1 X137.669 Y125.581 E.04089
G1 X137.107 Y126.325 E.04358
G1 X136.635 Y126.866 E.03356
G1 X135.723 Y127.735 E.05888
G1 X134.732 Y128.487 E.05815
G1 X133.696 Y129.107 E.05643
G1 X132.709 Y129.567 E.0509
G1 X131.888 Y129.864 E.04081
G1 X130.868 Y130.138 E.04937
G1 X129.838 Y130.312 E.04883
G1 X128.664 Y130.39 E.05499
G1 X91.442 Y130.393 E1.73979
G1 X90.437 Y130.342 E.04703
G1 X89.033 Y130.117 E.06646
G1 X88.311 Y129.925 E.03492
G1 X87.502 Y129.651 E.03992
G1 X86.428 Y129.171 E.05499
G1 X85.386 Y128.565 E.05634
G1 X84.395 Y127.834 E.05756
G1 X83.491 Y126.996 E.05762
G1 X82.688 Y126.07 E.05729
G1 X81.995 Y125.064 E.0571
G1 X81.433 Y124.026 E.05517
G1 X80.993 Y122.959 E.05395
G1 X80.655 Y121.808 E.05607
G1 X80.439 Y120.598 E.05745
G1 X80.36 Y119.403 E.05598
G1 X80.357 Y93.917 E1.19124
G1 X80.568 Y92.847 E.05098
G1 X81.029 Y91.852 E.05126
G1 X82.083 Y90.679 E.07371
G1 X82.676 Y90.234 E.03465
G1 X82.886 Y90.515 F9000
G1 F1200
G1 X84.603 Y89.958 E.08437
G1 X135.353 Y89.962 E2.37209
G1 X136.237 Y90.133 E.04208
G1 X137.084 Y90.498 E.04311
G1 X138.259 Y91.489 E.07185
G1 X138.961 Y92.6 E.06143
G1 X139.281 Y93.842 E.05995
G1 X139.275 Y119.829 E1.21465
G1 X139.174 Y120.835 E.04726
G1 X139.047 Y121.535 E.03325
G1 X138.74 Y122.655 E.05428
G1 X138.305 Y123.757 E.05538
G1 X137.829 Y124.673 E.04825
G1 X137.384 Y125.375 E.03885
G1 X136.831 Y126.108 E.04292
G1 X136.375 Y126.629 E.03236
G1 X135.502 Y127.461 E.05637
G1 X134.543 Y128.191 E.05633
G1 X133.539 Y128.792 E.05469
G1 X132.568 Y129.245 E.05008
G1 X131.79 Y129.527 E.03868
G1 X130.801 Y129.793 E.04787
G1 X129.789 Y129.964 E.04797
G1 X128.647 Y130.039 E.05349
G1 X91.446 Y130.042 E1.7388
G1 X90.464 Y129.992 E.04596
G1 X89.115 Y129.775 E.06386
G1 X88.419 Y129.591 E.03365
G1 X87.622 Y129.321 E.03933
G1 X86.58 Y128.855 E.05335
G1 X85.571 Y128.267 E.05459
G1 X84.612 Y127.557 E.05577
G1 X83.737 Y126.746 E.05576
G1 X82.961 Y125.848 E.05547
G1 X82.29 Y124.873 E.05532
G1 X81.747 Y123.868 E.05339
G1 X81.321 Y122.834 E.05227
G1 X80.995 Y121.719 E.0543
G1 X80.787 Y120.546 E.05568
G1 X80.711 Y119.386 E.05434
G1 X80.708 Y93.935 E1.1896
G1 X80.908 Y92.938 E.04753
G1 X81.335 Y92.025 E.04711
G1 X82.331 Y90.928 E.06926
G1 X82.837 Y90.551 E.02949
G1 X83.046 Y90.833 F9000
G1 F1200
G1 X83.095 Y90.797 E.00284
G1 X84.63 Y90.31 E.07527
G1 X135.336 Y90.313 E2.37004
G1 X136.149 Y90.474 E.03874
G1 X136.919 Y90.809 E.03925
G1 X138.01 Y91.738 E.06698
G1 X138.648 Y92.762 E.05639
G1 X138.935 Y93.906 E.05513
G1 X138.924 Y119.82 E1.21124
G1 X138.825 Y120.792 E.04567
G1 X138.703 Y121.464 E.03192
G1 X138.404 Y122.552 E.05274
G1 X137.982 Y123.619 E.05363
G1 X137.521 Y124.504 E.04664
G1 X137.1 Y125.169 E.03679
G1 X136.554 Y125.891 E.04231
G1 X136.116 Y126.392 E.0311
G1 X135.267 Y127.2 E.05478
G1 X134.353 Y127.895 E.05367
G1 X133.383 Y128.478 E.0529
G1 X132.427 Y128.923 E.04929
G1 X131.691 Y129.19 E.03659
G1 X130.734 Y129.448 E.04633
G1 X129.739 Y129.616 E.04717
G1 X128.63 Y129.688 E.05194
G1 X91.451 Y129.69 E1.73778
G1 X90.492 Y129.642 E.04488
G1 X89.196 Y129.434 E.06135
G1 X88.526 Y129.256 E.0324
G1 X87.743 Y128.991 E.03864
G1 X86.732 Y128.538 E.05178
G1 X85.757 Y127.968 E.05279
G1 X84.829 Y127.281 E.05397
G1 X83.983 Y126.495 E.05398
G1 X83.233 Y125.626 E.05365
G1 X82.585 Y124.682 E.05352
G1 X82.06 Y123.709 E.05168
G1 X81.65 Y122.709 E.05052
G1 X81.335 Y121.63 E.05254
G1 X81.134 Y120.495 E.05388
G1 X81.062 Y119.369 E.05274
G1 X81.06 Y93.952 E1.18801
G1 X81.235 Y93.067 E.04217
G1 X81.642 Y92.199 E.04481
G1 X82.578 Y91.178 E.06474
G1 X82.998 Y90.869 E.02437
G1 X83.204 Y91.152 F9000
G1 F1200
G1 X83.279 Y91.098 E.00432
G1 X84.657 Y90.661 E.06757
G1 X135.318 Y90.664 E2.36794
G1 X136.06 Y90.814 E.03538
G1 X136.753 Y91.12 E.03541
G1 X137.759 Y91.986 E.06204
G1 X138.334 Y92.921 E.05131
G1 X138.589 Y93.968 E.05037
G1 X138.573 Y119.811 E1.20792
G1 X138.476 Y120.749 E.04408
G1 X138.359 Y121.394 E.03064
G1 X138.068 Y122.45 E.0512
G1 X137.659 Y123.481 E.05184
G1 X137.213 Y124.335 E.04503
G1 X136.815 Y124.963 E.03475
G1 X136.278 Y125.674 E.04165
G1 X135.857 Y126.154 E.02984
G1 X135.047 Y126.926 E.0523
G1 X134.164 Y127.599 E.05189
G1 X133.226 Y128.163 E.05116
G1 X132.285 Y128.601 E.04851
G1 X131.592 Y128.852 E.03445
G1 X130.667 Y129.103 E.0448
G1 X129.69 Y129.268 E.04631
G1 X128.613 Y129.337 E.05044
G1 X91.455 Y129.339 E1.73679
G1 X90.519 Y129.291 E.04381
G1 X89.277 Y129.092 E.05879
G1 X88.632 Y128.921 E.03119
G1 X87.864 Y128.661 E.0379
G1 X86.885 Y128.221 E.05017
G1 X85.942 Y127.67 E.05105
G1 X85.046 Y127.005 E.05215
G1 X84.229 Y126.244 E.05219
G1 X83.506 Y125.404 E.0518
G1 X82.88 Y124.491 E.05174
G1 X82.374 Y123.551 E.0499
G1 X81.978 Y122.585 E.0488
G1 X81.675 Y121.541 E.05081
G1 X81.482 Y120.444 E.05206
G1 X81.413 Y119.353 E.0511
G1 X81.411 Y93.97 E1.18642
G1 X81.575 Y93.159 E.03867
G1 X81.947 Y92.374 E.0406
G1 X82.824 Y91.43 E.06023
G1 X83.156 Y91.187 E.01923
G1 X83.361 Y91.471 F9000
G1 F1200
G1 X83.461 Y91.399 E.00576
G1 X84.684 Y91.012 E.05996
G1 X135.299 Y91.016 E2.36578
G1 X135.97 Y91.154 E.03202
G1 X136.585 Y91.429 E.03149
G1 X137.507 Y92.232 E.05715
G1 X138.019 Y93.079 E.04626
G1 X138.238 Y93.988 E.0437
G1 X138.221 Y119.802 E1.20657
G1 X138.127 Y120.706 E.04248
G1 X138.015 Y121.323 E.02931
G1 X137.732 Y122.347 E.04966
G1 X137.336 Y123.342 E.05006
G1 X136.905 Y124.165 E.04342
G1 X136.53 Y124.757 E.03275
G1 X136.001 Y125.457 E.04101
G1 X135.598 Y125.916 E.02855
G1 X134.826 Y126.653 E.04989
G1 X133.974 Y127.303 E.05009
G1 X133.069 Y127.849 E.0494
G1 X132.144 Y128.28 E.0477
G1 X131.493 Y128.515 E.03235
G1 X130.6 Y128.758 E.04326
G1 X129.64 Y128.92 E.04551
G1 X128.597 Y128.986 E.04885
G1 X91.46 Y128.988 E1.73581
G1 X90.547 Y128.941 E.04273
G1 X89.359 Y128.75 E.05624
G1 X88.739 Y128.586 E.02998
G1 X87.984 Y128.331 E.03725
G1 X87.038 Y127.905 E.04849
G1 X86.128 Y127.372 E.04929
G1 X85.264 Y126.729 E.05034
G1 X84.476 Y125.994 E.05037
G1 X83.778 Y125.183 E.05001
G1 X83.175 Y124.301 E.04994
G1 X82.688 Y123.393 E.04816
G1 X82.307 Y122.461 E.04706
G1 X82.015 Y121.453 E.04905
G1 X81.83 Y120.393 E.05029
G1 X81.764 Y119.336 E.0495
G1 X81.762 Y93.988 E1.18479
G1 X81.915 Y93.252 E.03514
G1 X82.252 Y92.552 E.03631
G1 X83.067 Y91.684 E.05565
G1 X83.313 Y91.506 E.01419
G1 X83.516 Y91.791 F9000
G1 F1200
G1 X83.642 Y91.701 E.00724
G1 X84.711 Y91.364 E.05239
G1 X135.282 Y91.367 E2.36373
G1 X135.844 Y91.483 E.02682
G1 X136.417 Y91.739 E.02933
G1 X137.253 Y92.476 E.05209
G1 X137.703 Y93.235 E.04124
G1 X137.886 Y94.008 E.03713
G1 X137.87 Y119.792 E1.20516
G1 X137.779 Y120.662 E.04089
G1 X137.671 Y121.252 E.02804
G1 X137.396 Y122.243 E.04807
G1 X137.013 Y123.203 E.04831
G1 X136.597 Y123.996 E.04186
G1 X136.246 Y124.551 E.03069
G1 X135.725 Y125.24 E.04038
G1 X135.34 Y125.679 E.02729
G1 X134.59 Y126.392 E.04837
G1 X133.784 Y127.007 E.04739
G1 X132.912 Y127.534 E.04762
G1 X132.003 Y127.958 E.04688
G1 X131.393 Y128.178 E.03031
G1 X130.533 Y128.413 E.04167
G1 X129.591 Y128.572 E.04465
G1 X128.58 Y128.635 E.04735
G1 X91.464 Y128.636 E1.73483
G1 X90.574 Y128.591 E.04165
G1 X89.44 Y128.408 E.05369
G1 X88.846 Y128.252 E.02871
G1 X88.105 Y128.001 E.03657
G1 X87.191 Y127.589 E.04686
G1 X86.315 Y127.074 E.0475
G1 X85.482 Y126.453 E.04856
G1 X84.723 Y125.744 E.04855
G1 X84.051 Y124.961 E.04823
G1 X83.471 Y124.11 E.04814
G1 X83.002 Y123.236 E.04636
G1 X82.636 Y122.337 E.04537
G1 X82.355 Y121.365 E.04729
G1 X82.178 Y120.343 E.04848
G1 X82.115 Y119.32 E.04791
G1 X82.114 Y94.007 E1.18315
G1 X82.253 Y93.347 E.03153
G1 X82.555 Y92.732 E.03202
G1 X83.309 Y91.939 E.05115
G1 X83.467 Y91.826 E.00908
G1 X83.668 Y92.112 F9000
G1 F1200
G1 X83.822 Y92.004 E.00879
G1 X84.737 Y91.715 E.04485
G1 X135.263 Y91.718 E2.36163
G1 X135.751 Y91.822 E.02332
G1 X136.246 Y92.047 E.02541
G1 X136.997 Y92.719 E.0471
G1 X137.386 Y93.387 E.03613
G1 X137.535 Y94.028 E.03076
G1 X137.519 Y119.783 E1.20381
G1 X137.43 Y120.618 E.03925
G1 X137.326 Y121.18 E.02671
G1 X137.06 Y122.14 E.04656
G1 X136.69 Y123.064 E.04652
G1 X136.289 Y123.826 E.04025
G1 X135.961 Y124.345 E.0287
G1 X135.449 Y125.023 E.03971
G1 X135.081 Y125.441 E.02603
G1 X134.369 Y126.119 E.04595
G1 X133.594 Y126.712 E.04561
G1 X132.755 Y127.22 E.04584
G1 X131.862 Y127.636 E.04605
G1 X131.294 Y127.841 E.02822
G1 X130.465 Y128.068 E.04017
G1 X129.542 Y128.224 E.04375
G1 X128.564 Y128.284 E.0458
G1 X91.469 Y128.285 E1.73385
G1 X90.602 Y128.24 E.04058
G1 X89.521 Y128.066 E.05118
G1 X88.953 Y127.917 E.02745
G1 X88.226 Y127.671 E.03587
G1 X87.345 Y127.272 E.0452
G1 X86.502 Y126.776 E.04572
G1 X85.7 Y126.177 E.04679
G1 X84.983 Y125.508 E.04584
G1 X84.336 Y124.755 E.0464
G1 X83.766 Y123.92 E.04726
G1 X83.317 Y123.078 E.0446
G1 X82.965 Y122.213 E.04365
G1 X82.696 Y121.277 E.04552
G1 X82.526 Y120.293 E.04667
G1 X82.466 Y119.304 E.04631
G1 X82.465 Y94.026 E1.18151
G1 X82.592 Y93.444 E.02784
G1 X82.856 Y92.914 E.02768
G1 X83.55 Y92.196 E.04667
G1 X83.619 Y92.147 E.00396
G1 X83.817 Y92.434 F9000
G1 F1200
G1 X83.999 Y92.309 E.01032
G1 X84.764 Y92.066 E.03752
G1 X135.243 Y92.07 E2.35943
G1 X135.656 Y92.161 E.01977
G1 X136.073 Y92.354 E.02148
G1 X136.74 Y92.959 E.04209
G1 X137.067 Y93.537 E.03104
G1 X137.184 Y94.047 E.02446
G1 X137.167 Y119.773 E1.20245
G1 X137.081 Y120.574 E.03765
G1 X136.982 Y121.109 E.02543
G1 X136.724 Y122.036 E.04498
G1 X136.367 Y122.925 E.04478
G1 X135.982 Y123.656 E.03862
G1 X135.676 Y124.139 E.02673
G1 X135.173 Y124.806 E.03905
G1 X134.823 Y125.202 E.0247
G1 X134.148 Y125.846 E.04361
G1 X133.403 Y126.417 E.04387
G1 X132.598 Y126.906 E.04402
G1 X131.72 Y127.314 E.04525
G1 X131.194 Y127.504 E.02614
G1 X130.398 Y127.723 E.03859
G1 X129.493 Y127.876 E.0429
G1 X128.549 Y127.933 E.0442
G1 X91.473 Y127.934 E1.73296
G1 X90.63 Y127.89 E.03946
G1 X89.601 Y127.724 E.04872
G1 X89.06 Y127.582 E.02614
G1 X88.347 Y127.341 E.03518
G1 X87.498 Y126.956 E.04357
G1 X86.688 Y126.478 E.04396
G1 X85.919 Y125.902 E.04491
G1 X85.23 Y125.258 E.04408
G1 X84.609 Y124.534 E.04458
G1 X84.062 Y123.731 E.04541
G1 X83.631 Y122.921 E.04289
G1 X83.294 Y122.09 E.04191
G1 X83.036 Y121.189 E.04381
G1 X82.874 Y120.243 E.04486
G1 X82.817 Y119.289 E.04467
G1 X82.816 Y94.046 E1.17988
G1 X82.929 Y93.544 E.02405
G1 X83.156 Y93.098 E.02339
G1 X83.771 Y92.472 E.04102
G1 X84.019 Y92.72 F9000
G1 F1200
G1 X84.174 Y92.614 E.00878
G1 X84.792 Y92.418 E.0303
G1 X135.222 Y92.421 E2.35714
G1 X135.557 Y92.498 E.01607
G1 X135.898 Y92.659 E.01763
G1 X136.479 Y93.196 E.03698
G1 X136.747 Y93.683 E.02598
G1 X136.832 Y94.066 E.01834
G1 X136.816 Y119.763 E1.2011
G1 X136.733 Y120.529 E.03601
G1 X136.638 Y121.037 E.02416
G1 X136.388 Y121.932 E.04343
G1 X136.045 Y122.785 E.04297
G1 X135.675 Y123.486 E.03705
G1 X135.391 Y123.933 E.02475
G1 X134.896 Y124.589 E.03841
G1 X134.565 Y124.964 E.02338
G1 X133.926 Y125.573 E.04126
G1 X133.212 Y126.122 E.0421
G1 X132.44 Y126.591 E.04222
G1 X131.579 Y126.992 E.04439
G1 X131.094 Y127.168 E.02412
G1 X130.33 Y127.379 E.03705
G1 X129.444 Y127.528 E.04199
G1 X128.533 Y127.582 E.04266
G1 X91.478 Y127.582 E1.73198
G1 X90.658 Y127.539 E.03838
G1 X89.682 Y127.382 E.04621
G1 X89.166 Y127.247 E.02493
G1 X88.468 Y127.011 E.03444
G1 X87.653 Y126.641 E.04184
G1 X86.876 Y126.181 E.0422
G1 X86.137 Y125.627 E.04317
G1 X85.478 Y125.008 E.04226
G1 X84.883 Y124.313 E.04276
G1 X84.358 Y123.541 E.04364
G1 X83.946 Y122.765 E.04107
G1 X83.623 Y121.967 E.04024
G1 X83.376 Y121.102 E.04205
G1 X83.222 Y120.194 E.04305
G1 X83.168 Y119.273 E.04312
G1 X83.168 Y94.065 E1.17824
G1 X83.252 Y93.683 E.01828
G1 X83.456 Y93.283 E.02099
G1 X83.977 Y92.762 E.03444
G1 X84.222 Y93.012 F9000
G1 F1200
G1 X84.345 Y92.921 E.00715
G1 X84.819 Y92.769 E.02327
G1 X135.202 Y92.772 E2.35494
G1 X135.424 Y92.824 E.01066
G1 X135.722 Y92.965 E.01541
G1 X136.216 Y93.43 E.03171
G1 X136.425 Y93.825 E.02089
G1 X136.481 Y94.084 E.01239
G1 X136.466 Y119.735 E1.19895
G1 X136.384 Y120.484 E.03522
G1 X136.295 Y120.965 E.02286
G1 X136.053 Y121.828 E.04189
G1 X135.723 Y122.645 E.04118
G1 X135.367 Y123.315 E.03546
G1 X135.107 Y123.727 E.02277
G1 X134.62 Y124.371 E.03774
G1 X134.306 Y124.726 E.02215
G1 X133.705 Y125.3 E.03884
G1 X133.021 Y125.827 E.04036
G1 X132.283 Y126.277 E.0404
G1 X131.438 Y126.671 E.04358
G1 X130.993 Y126.831 E.0221
G1 X130.263 Y127.034 E.03542
G1 X129.395 Y127.18 E.04114
G1 X128.518 Y127.231 E.04106
G1 X91.483 Y127.231 E1.73105
G1 X90.685 Y127.189 E.03735
G1 X89.762 Y127.04 E.0437
G1 X89.273 Y126.913 E.02361
G1 X88.589 Y126.681 E.03376
G1 X87.807 Y126.325 E.04016
G1 X87.063 Y125.884 E.04043
G1 X86.356 Y125.352 E.04136
G1 X85.726 Y124.759 E.04044
G1 X85.156 Y124.092 E.04101
G1 X84.654 Y123.352 E.0418
G1 X84.26 Y122.609 E.03931
G1 X83.953 Y121.845 E.03849
G1 X83.717 Y121.016 E.04029
G1 X83.572 Y120.164 E.0404
G1 X83.519 Y119.268 E.04195
G1 X83.519 Y94.083 E1.17717
G1 X83.576 Y93.822 E.01249
G1 X83.756 Y93.469 E.01852
G1 X84.179 Y93.054 E.0277
G1 X84.421 Y93.307 F9000
G1 F1200
G1 X84.511 Y93.232 E.00548
G1 X84.848 Y93.12 E.0166
G1 X135.181 Y93.124 E2.3526
G1 X135.29 Y93.149 E.00523
G1 X135.545 Y93.27 E.01319
