; generated by PrusaSlicer 2.8.0+win64 on 2024-12-13 at 13:28:23 UTC


;
;

;
;
; 

; external perimeters extrusion width = 0.50mm
; perimeters extrusion width = 0.60mm
; infill extrusion width = 0.40mm
; solid infill extrusion width = 0.80mm
; top infill extrusion width = 0.40mm
; support material extrusion width = 0.35mm
; first layer extrusion width = 0.80mm

;TYPE:Custom
G90 ; use absolute coordinates
M83 ; extruder relative mode
; M104 S150 ; set temporary nozzle temp to prevent oozing during homing
M140 S85 ; set final bed temp
M190 S85 ; wait for bed temp to stabilize
M220 S100 ;Reset Feedrate
M221 S100 ;Reset Flowrate
G28 ; home all axis and restore leveling
M420 S1 ; restore bed leveling

G1 X2.0 Y10 F3000
G1 Z0.28 F240
M104 S240 ; set final nozzle temp
M109 S240 ; wait for nozzle temp to stabilize

G1 X2 Y30 E2 F1200 ; Slowly move away from the possible blob at the nozzle
G92 E0
G21 ; set units to millimeters
G90 ; use absolute coordinates
M83 ; use relative distances for extrusion
M107
;LAYER_CHANGE
;Z:0.2
;HEIGHT:0.2
G1 E-1.4 F2400
G1 Z.4 F12000
G1 X108.894 Y104.57
G1 Z.2
G1 E1.4 F2400
;TYPE:External perimeter
;WIDTH:0.799999
G1 F900
G1 X109.251 Y104.504 E.02285
G1 X109.863 Y104.453 E.03866
G1 X110.909 Y104.526 E.06601
G1 X111.472 Y104.649 E.03628
G1 X112.061 Y104.849 E.03916
G1 X112.556 Y105.076 E.03428
G1 X113.02 Y105.349 E.03389
G1 X113.907 Y106.061 E.0716
G1 X114.515 Y106.776 E.05908
G1 X114.812 Y107.243 E.03484
G1 X115.079 Y107.78 E.03775
G1 X115.306 Y108.379 E.04032
G1 X115.455 Y108.978 E.03886
G1 X115.535 Y109.593 E.03904
G1 X115.538 Y110.362 E.04841
G1 X115.47 Y110.925 E.0357
G1 X115.318 Y111.584 E.04257
G1 X115.135 Y112.098 E.03435
G1 X114.873 Y112.654 E.03869
G1 X114.278 Y113.534 E.06687
G1 X113.622 Y114.204 E.05903
G1 X112.804 Y114.788 E.06327
G1 X112.242 Y115.076 E.03975
G1 X111.75 Y115.259 E.03305
G1 X111.135 Y115.431 E.0402
G1 X110.57 Y115.498 E.03582
G1 X109.934 Y115.537 E.04011
G1 X109.148 Y115.482 E.0496
G1 X108.529 Y115.351 E.03983
G1 X107.942 Y115.152 E.03902
G1 X107.445 Y114.923 E.03445
G1 X106.916 Y114.612 E.03863
G1 X106.144 Y113.988 E.06249
G1 X105.487 Y113.227 E.06329
G1 X105.21 Y112.789 E.03262
G1 X104.875 Y112.118 E.04721
G1 X104.696 Y111.622 E.03319
G1 X104.547 Y111.023 E.03886
G1 X104.467 Y110.409 E.03898
G1 X104.464 Y109.69 E.04526
G1 X104.539 Y109.02 E.04244
G1 X104.668 Y108.484 E.03471
G1 X104.829 Y108.007 E.03169
G1 X105.129 Y107.347 E.04564
G1 X105.602 Y106.637 E.05371
G1 X105.724 Y106.468 E.01312
G1 X106.38 Y105.798 E.05903
G1 X107.198 Y105.213 E.06331
G1 X108.107 Y104.785 E.06325
G1 X108.714 Y104.604 E.03987
G1 X108.835 Y104.581 E.00775
;WIPE_START
G1 F9600
G1 X108.894 Y104.57 E-.01425
G1 X109.251 Y104.504 E-.08622
G1 X109.863 Y104.453 E-.14585
G1 X110.909 Y104.526 E-.24903
G1 X111.472 Y104.649 E-.13687
G1 X112.061 Y104.849 E-.14773
G1 X112.556 Y105.076 E-.12933
G1 X113.02 Y105.349 E-.12786
G1 X113.907 Y106.061 E-.27014
G1 X114.16 Y106.358 E-.09272
;WIPE_END
G1 Z.4 F12000
G1 X100.219 Y107.541
G1 Z.2
G1 E1.4 F2400
G1 F900
G1 X100.402 Y107.961 E.02884
G1 X100.466 Y108.168 E.01364
G1 X100.495 Y108.596 E.027
G1 X100.41 Y109.608 E.06393
G1 X100.412 Y110.458 E.05351
G1 X100.546 Y111.616 E.07338
G1 X100.728 Y112.469 E.05491
G1 X100.984 Y113.282 E.05366
G1 X101.192 Y113.791 E.03461
G1 X101.518 Y114.474 E.04764
G1 X101.794 Y114.973 E.0359
G1 X102.215 Y115.615 E.04833
G1 X102.737 Y116.276 E.05302
G1 X103.324 Y116.897 E.05379
G1 X104.303 Y117.725 E.08072
G1 X104.997 Y118.193 E.05269
G1 X105.748 Y118.607 E.05398
G1 X106.528 Y118.949 E.05361
G1 X107.017 Y119.124 E.0327
G1 X108.014 Y119.415 E.06538
G1 X108.66 Y119.66 E.04349
G1 X109.265 Y119.99 E.04338
G1 X109.881 Y120.512 E.05083
G1 X110.172 Y121.008 E.0362
G1 X110.24 Y121.421 E.02635
G1 X110.107 Y130.992 E.60257
G1 X110.038 Y131.315 E.02079
G1 X109.734 Y131.718 E.03178
G1 X109.34 Y131.995 E.03032
G1 X108.852 Y132.199 E.0333
G1 X108.062 Y132.384 E.05108
G1 X107.381 Y132.439 E.04301
G1 X106.442 Y132.449 E.05911
G1 X105.679 Y132.358 E.04837
G1 X104.643 Y132.162 E.06637
G1 X103.891 Y131.965 E.04894
G1 X102.713 Y131.605 E.07754
G1 X101.442 Y131.134 E.08533
G1 X100.192 Y130.583 E.08599
G1 X99.238 Y130.092 E.06754
G1 X98.136 Y129.461 E.07994
G1 X97.075 Y128.773 E.0796
G1 X96.176 Y128.131 E.06954
G1 X95.131 Y127.284 E.08468
G1 X94.122 Y126.361 E.08608
G1 X93.182 Y125.393 E.08494
G1 X92.3 Y124.371 E.08498
G1 X91.667 Y123.543 E.06561
G1 X91.085 Y122.729 E.06299
G1 X90.613 Y121.981 E.05568
G1 X89.723 Y120.426 E.11279
G1 X89.14 Y119.203 E.08529
G1 X88.632 Y117.951 E.08506
G1 X88.198 Y116.664 E.0855
G1 X87.841 Y115.362 E.08499
G1 X87.634 Y114.381 E.06312
G1 X87.426 Y113.131 E.07977
G1 X87.242 Y111.361 E.11202
G1 X87.2 Y110.01 E.08509
G1 X87.237 Y108.722 E.08111
G1 X87.344 Y107.455 E.08004
G1 X87.522 Y106.188 E.08054
G1 X87.633 Y105.582 E.03878
G1 X87.835 Y105.031 E.03694
G1 X88.222 Y104.558 E.03847
G1 X88.753 Y104.24 E.03896
G1 X89.295 Y104.135 E.03475
G1 X89.787 Y104.172 E.03106
G1 X99.078 Y106.66 E.60549
G1 X99.504 Y106.834 E.02897
G1 X99.865 Y107.093 E.02797
G1 X100.194 Y107.483 E.03212
G1 X100.195 Y107.486 E.0002
;WIPE_START
G1 F9600
G1 X100.219 Y107.541 E-.01425
G1 X100.402 Y107.961 E-.10881
G1 X100.466 Y108.168 E-.05146
G1 X100.495 Y108.596 E-.10188
G1 X100.41 Y109.608 E-.2412
G1 X100.412 Y110.458 E-.20188
G1 X100.546 Y111.616 E-.27686
G1 X100.728 Y112.469 E-.20715
G1 X100.976 Y113.258 E-.19651
;WIPE_END
G1 Z.4 F12000
G1 X125.351 Y95.106
G1 Z.2
G1 E1.4 F2400
G1 F900
G1 X125.166 Y95.393 E.0215
G1 X118.356 Y102.212 E.60667
G1 X117.91 Y102.535 E.03467
G1 X117.429 Y102.724 E.03253
G1 X116.872 Y102.763 E.03515
G1 X116.372 Y102.665 E.03207
G1 X115.991 Y102.483 E.02658
G1 X115.137 Y101.89 E.06545
G1 X114.4 Y101.468 E.05346
G1 X113.632 Y101.113 E.05326
G1 X112.41 Y100.708 E.08104
G1 X111.584 Y100.531 E.05318
G1 X110.744 Y100.43 E.05326
G1 X109.887 Y100.4 E.05398
G1 X109.04 Y100.448 E.05341
G1 X108.198 Y100.571 E.05357
G1 X107.368 Y100.769 E.05372
G1 X106.558 Y101.039 E.05375
G1 X105.778 Y101.379 E.05356
G1 X105.03 Y101.789 E.0537
G1 X104.324 Y102.258 E.05336
G1 X103.669 Y102.785 E.05292
G1 X102.637 Y103.751 E.08899
G1 X102.115 Y104.143 E.04109
G1 X101.493 Y104.463 E.04403
G1 X101.147 Y104.595 E.02331
G1 X100.824 Y104.66 E.02074
G1 X100.348 Y104.635 E.03001
G1 X99.99 Y104.498 E.02413
G1 X91.768 Y99.596 E.6026
G1 X91.523 Y99.372 E.0209
G1 X91.331 Y98.944 E.02953
G1 X91.284 Y98.429 E.03255
G1 X91.351 Y97.904 E.03332
G1 X91.485 Y97.408 E.03234
G1 X91.707 Y96.832 E.03886
G1 X91.946 Y96.348 E.03398
G1 X92.251 Y95.83 E.03784
G1 X92.951 Y94.877 E.07444
G1 X93.958 Y93.799 E.09286
G1 X94.627 Y93.175 E.05759
G1 X95.993 Y92.011 E.11298
G1 X97.034 Y91.246 E.08132
G1 X97.614 Y90.86 E.04386
G1 X98.763 Y90.162 E.08463
G1 X99.23 Y89.915 E.03326
G1 X99.924 Y89.548 E.04942
G1 X100.563 Y89.245 E.04452
G1 X101.784 Y88.733 E.08335
G1 X102.418 Y88.498 E.04256
G1 X103.334 Y88.205 E.06054
G1 X104.347 Y87.911 E.0664
G1 X105.64 Y87.622 E.0834
G1 X106.952 Y87.405 E.08371
G1 X108.298 Y87.264 E.0852
G1 X109.644 Y87.204 E.08482
G1 X110.98 Y87.222 E.08411
G1 X112.316 Y87.319 E.08432
G1 X113.31 Y87.449 E.06311
G1 X114.558 Y87.669 E.07977
G1 X115.625 Y87.905 E.06879
G1 X116.914 Y88.273 E.08439
G1 X118.174 Y88.717 E.0841
G1 X119.413 Y89.234 E.08451
G1 X120.619 Y89.824 E.08452
G1 X121.781 Y90.48 E.084
G1 X122.359 Y90.84 E.04287
G1 X123.181 Y91.406 E.06283
G1 X124.186 Y92.162 E.07917
G1 X125.034 Y92.858 E.06906
G1 X125.388 Y93.289 E.03511
G1 X125.606 Y93.864 E.03871
G1 X125.628 Y94.385 E.03283
G1 X125.5 Y94.875 E.03188
G1 X125.384 Y95.055 E.01348
;WIPE_START
G1 F9600
G1 X125.351 Y95.106 E-.01443
G1 X125.166 Y95.393 E-.0811
G1 X121.285 Y99.279 E-1.30447
;WIPE_END
G1 Z.4 F12000
G1 X113.007 Y119.36
G1 Z.2
G1 E1.4 F2400
G1 F900
G1 X113.444 Y118.992 E.03596
G1 X114.453 Y118.505 E.07053
G1 X115.551 Y117.833 E.08104
G1 X116.215 Y117.318 E.0529
G1 X116.838 Y116.739 E.05354
G1 X117.412 Y116.105 E.05384
G1 X117.922 Y115.424 E.05356
G1 X118.371 Y114.702 E.05352
G1 X118.754 Y113.943 E.05352
G1 X119.069 Y113.153 E.05354
G1 X119.312 Y112.335 E.05372
G1 X119.483 Y111.498 E.05378
G1 X119.579 Y110.654 E.05347
G1 X119.598 Y109.802 E.05365
G1 X119.544 Y108.954 E.05349
G1 X119.415 Y108.123 E.05294
G1 X119.085 Y106.689 E.09263
G1 X119.025 Y106.169 E.03295
G1 X119.018 Y105.554 E.03872
G1 X119.172 Y104.831 E.04653
G1 X119.446 Y104.348 E.03496
G1 X119.771 Y104.082 E.02644
G1 X128.126 Y99.412 E.60254
G1 X128.511 Y99.311 E.02506
G1 X128.907 Y99.359 E.02511
G1 X129.392 Y99.586 E.03371
G1 X130.011 Y100.099 E.05061
G1 X130.548 Y100.736 E.05245
G1 X130.853 Y101.192 E.03454
G1 X131.142 Y101.699 E.03674
G1 X131.524 Y102.538 E.05803
G1 X131.87 Y103.552 E.06745
G1 X132.08 Y104.317 E.04994
G1 X132.352 Y105.493 E.07599
G1 X132.578 Y106.822 E.08486
G1 X132.686 Y107.802 E.06207
G1 X132.773 Y109.069 E.07995
G1 X132.786 Y110.838 E.11136
G1 X132.696 Y112.193 E.08549
G1 X132.524 Y113.54 E.08548
G1 X132.282 Y114.836 E.083
G1 X131.961 Y116.136 E.08429
G1 X131.563 Y117.41 E.08402
G1 X131.331 Y118.052 E.04297
G1 X130.746 Y119.447 E.09523
G1 X130.241 Y120.497 E.07335
G1 X129.591 Y121.668 E.08431
G1 X128.872 Y122.797 E.08426
G1 X128.082 Y123.888 E.08479
G1 X127.239 Y124.923 E.08403
G1 X126.329 Y125.914 E.0847
G1 X125.362 Y126.849 E.08468
G1 X124.191 Y127.84 E.09657
G1 X123.278 Y128.536 E.07227
G1 X122.166 Y129.284 E.08437
G1 X121.588 Y129.637 E.04263
G1 X120.422 Y130.28 E.08382
G1 X119.902 Y130.538 E.03654
G1 X118.598 Y131.118 E.08984
G1 X117.335 Y131.589 E.08486
G1 X116.781 Y131.682 E.03536
G1 X116.171 Y131.581 E.03892
G1 X115.711 Y131.341 E.03266
G1 X115.409 Y131.061 E.02593
G1 X115.159 Y130.667 E.02937
G1 X115.046 Y130.375 E.01971
G1 X112.569 Y121.13 E.60251
G1 X112.51 Y120.565 E.03576
G1 X112.638 Y119.944 E.03991
G1 X112.958 Y119.401 E.03968
G1 X112.961 Y119.399 E.00023
;WIPE_START
G1 F9600
G1 X113.007 Y119.36 E-.01432
G1 X113.444 Y118.992 E-.13569
G1 X114.453 Y118.505 E-.26609
G1 X115.551 Y117.833 E-.30574
G1 X116.215 Y117.318 E-.19957
G1 X116.838 Y116.739 E-.202
G1 X117.412 Y116.105 E-.20312
G1 X117.597 Y115.857 E-.07347
;WIPE_END
G1 Z.4 F12000
G1 X92.218 Y128.403
G1 Z.2
G1 E1.4 F2400
G1 F900
G1 X91.712 Y127.914 E.0443
G1 X90.749 Y126.874 E.08923
G1 X89.843 Y125.781 E.08937
G1 X89.417 Y125.222 E.04424
G1 X88.605 Y124.054 E.08955
G1 X88.226 Y123.462 E.04425
G1 X87.513 Y122.235 E.08934
G1 X86.869 Y120.97 E.08936
G1 X86.299 Y119.675 E.08907
G1 X85.8 Y118.348 E.08925
G1 X85.375 Y116.997 E.08916
G1 X85.026 Y115.62 E.08942
G1 X84.881 Y114.932 E.04426
G1 X84.646 Y113.533 E.0893
G1 X84.488 Y112.122 E.08938
G1 X84.44 Y111.419 E.04436
G1 X84.402 Y110 E.08936
G1 X84.44 Y108.581 E.08936
G1 X84.488 Y107.88 E.04423
G1 X84.646 Y106.469 E.08938
G1 X84.881 Y105.068 E.08943
G1 X85.026 Y104.38 E.04426
G1 X85.375 Y103.003 E.08942
G1 X85.8 Y101.653 E.0891
G1 X86.299 Y100.327 E.08919
G1 X86.87 Y99.03 E.08921
G1 X87.513 Y97.767 E.08922
G1 X88.224 Y96.542 E.08916
G1 X89.004 Y95.355 E.08941
G1 X89.414 Y94.784 E.04425
G1 X90.29 Y93.665 E.08946
G1 X91.223 Y92.6 E.08913
G1 X92.218 Y91.586 E.08943
G1 X92.73 Y91.105 E.04422
G1 X93.803 Y90.176 E.08935
G1 X94.926 Y89.311 E.08923
G1 X96.094 Y88.508 E.08923
G1 X97.305 Y87.77 E.08927
G1 X97.92 Y87.43 E.04424
G1 X99.191 Y86.795 E.08944
G1 X100.493 Y86.23 E.08935
G1 X101.15 Y85.978 E.0443
G1 X102.495 Y85.525 E.08934
G1 X103.862 Y85.149 E.08925
G1 X105.25 Y84.846 E.08943
G1 X105.941 Y84.723 E.04418
G1 X107.349 Y84.538 E.0894
G1 X108.761 Y84.43 E.08915
G1 X110.215 Y84.403 E.09155
G1 X111.593 Y84.449 E.0868
G1 X113.008 Y84.578 E.08945
G1 X113.705 Y84.669 E.04425
G1 X115.104 Y84.914 E.08941
G1 X116.485 Y85.235 E.08925
G1 X117.843 Y85.631 E.08905
G1 X119.181 Y86.104 E.08934
G1 X120.488 Y86.647 E.0891
G1 X121.764 Y87.263 E.0892
G1 X123.007 Y87.95 E.0894
G1 X123.609 Y88.315 E.04432
G1 X124.789 Y89.103 E.08932
G1 X125.923 Y89.953 E.08921
G1 X127.008 Y90.865 E.08923
G1 X128.042 Y91.838 E.08938
G1 X128.534 Y92.34 E.04425
G1 X129.483 Y93.394 E.08928
G1 X130.374 Y94.498 E.08931
G1 X131.202 Y95.65 E.08931
G1 X131.587 Y96.238 E.04424
G1 X132.317 Y97.456 E.08939
G1 X132.978 Y98.713 E.0894
G1 X133.279 Y99.348 E.04424
G1 X133.833 Y100.656 E.08942
G1 X134.314 Y101.989 E.08921
G1 X134.722 Y103.346 E.0892
G1 X135.051 Y104.727 E.08937
G1 X135.188 Y105.417 E.04428
G1 X135.403 Y106.823 E.08954
G1 X135.482 Y107.522 E.04428
G1 X135.578 Y108.938 E.08934
G1 X135.597 Y110.387 E.09122
G1 X135.578 Y111.061 E.04245
G1 X135.482 Y112.477 E.08934
G1 X135.305 Y113.883 E.08921
G1 X135.05 Y115.278 E.08927
G1 X134.721 Y116.657 E.08925
G1 X134.528 Y117.335 E.04438
G1 X134.084 Y118.682 E.08928
G1 X133.565 Y120.004 E.08941
G1 X133.281 Y120.647 E.04425
G1 X132.656 Y121.922 E.08939
G1 X131.961 Y123.156 E.08916
G1 X131.199 Y124.354 E.08938
G1 X130.797 Y124.93 E.04422
G1 X129.936 Y126.061 E.08948
G1 X129.017 Y127.138 E.08913
G1 X128.04 Y128.164 E.08919
G1 X127.008 Y129.135 E.0892
G1 X125.921 Y130.048 E.08936
G1 X125.364 Y130.478 E.0443
G1 X124.204 Y131.301 E.08954
G1 X123.614 Y131.681 E.04418
G1 X122.39 Y132.402 E.08943
G1 X121.132 Y133.054 E.0892
G1 X119.836 Y133.636 E.08943
G1 X119.183 Y133.898 E.04429
G1 X117.844 Y134.369 E.08935
G1 X116.485 Y134.765 E.08911
G1 X115.104 Y135.086 E.08925
G1 X113.708 Y135.33 E.08921
G1 X112.297 Y135.498 E.08945
G1 X111.596 Y135.551 E.04425
G1 X110.179 Y135.6 E.08926
G1 X108.762 Y135.57 E.08922
G1 X107.347 Y135.462 E.08934
G1 X106.647 Y135.38 E.04437
G1 X105.246 Y135.155 E.08933
G1 X103.862 Y134.854 E.08916
G1 X102.495 Y134.475 E.0893
G1 X101.152 Y134.022 E.08922
G1 X99.837 Y133.497 E.08913
G1 X98.55 Y132.897 E.08939
G1 X97.925 Y132.574 E.04429
G1 X96.692 Y131.87 E.08938
G1 X95.502 Y131.099 E.08926
G1 X94.928 Y130.692 E.0443
G1 X93.803 Y129.824 E.08945
G1 X92.732 Y128.899 E.08909
G1 X92.261 Y128.444 E.04123
;WIPE_START
G1 F9600
G1 X92.218 Y128.403 E-.01411
G1 X91.712 Y127.914 E-.16712
G1 X90.749 Y126.874 E-.33663
G1 X89.843 Y125.781 E-.33717
G1 X89.417 Y125.222 E-.16692
G1 X88.605 Y124.054 E-.33785
G1 X88.514 Y123.911 E-.0402
;WIPE_END
G1 Z.4 F12000
G1 X105.82 Y84.863
G1 Z.2
G1 E1.4 F2400
;TYPE:Solid infill
;WIDTH:0.804695
G1 F900
G1 X110.306 Y84.863 E.28415
G1 X111.565 Y84.906 E.07979
G1 X112.957 Y85.032 E.08853
G1 X113.636 Y85.121 E.04338
G1 X115.013 Y85.362 E.08855
G1 X116.143 Y85.625 E.07349
G1 X103.853 Y85.625 E.77847
G1 X102.629 Y85.962 E.08042
G1 X101.369 Y86.387 E.08423
G1 X118.61 Y86.387 E1.09208
G1 X119.016 Y86.53 E.02727
G1 X120.475 Y87.149 E.10039
G1 X114.273 Y87.149 E.39285
G1 X113.739 Y87.045 E.03446
G1 X112.364 Y86.864 E.08785
G1 X111.004 Y86.765 E.08637
G1 X109.645 Y86.747 E.08609
G1 X108.274 Y86.807 E.08692
G1 X106.88 Y86.954 E.08879
G1 X105.702 Y87.149 E.07563
G1 X99.524 Y87.149 E.39133
G1 X97.996 Y87.91 E.10813
G1 X102.755 Y87.91 E.30144
G1 X101.63 Y88.302 E.07546
G1 X100.748 Y88.672 E.06058
G1 X96.703 Y88.672 E.25622
G1 X96.342 Y88.892 E.02678
G1 X95.554 Y89.434 E.06058
G1 X99.164 Y89.434 E.22866
G1 X98.527 Y89.77 E.04562
G1 X97.827 Y90.196 E.0519
G1 X94.527 Y90.196 E.20903
G1 X94.092 Y90.53 E.03474
G1 X93.599 Y90.957 E.04131
G1 X96.656 Y90.957 E.19364
G1 X95.629 Y91.719 E.081
G1 X92.744 Y91.719 E.18274
G1 X91.98 Y92.481 E.06835
G1 X94.71 Y92.481 E.17292
G1 X93.883 Y93.243 E.07123
G1 X91.268 Y93.243 E.16564
G1 X90.605 Y94.005 E.06398
G1 X93.12 Y94.005 E.1593
G1 X92.625 Y94.554 E.04682
G1 X92.469 Y94.766 E.01667
G1 X90.009 Y94.766 E.15582
G1 X89.442 Y95.528 E.06016
G1 X91.908 Y95.528 E.1562
G1 X91.55 Y96.118 E.04371
G1 X91.465 Y96.29 E.01215
G1 X88.937 Y96.29 E.16013
G1 X88.457 Y97.052 E.05704
G1 X91.135 Y97.052 E.16963
G1 X91.033 Y97.32 E.01816
G1 X90.906 Y97.813 E.03225
G1 X88.015 Y97.813 E.18312
G1 X87.614 Y98.575 E.05454
G1 X90.83 Y98.575 E.20371
G1 X90.878 Y99.001 E.02715
G1 X90.946 Y99.247 E.01617
G1 X90.993 Y99.337 E.00643
G1 X87.234 Y99.337 E.2381
G1 X86.898 Y100.099 E.05275
G1 X91.719 Y100.099 E.30537
G1 X92.997 Y100.861 E.09425
G1 X86.586 Y100.861 E.40608
G1 X86.3 Y101.622 E.05149
G1 X94.275 Y101.622 E.50515
G1 X95.552 Y102.384 E.09419
G1 X86.049 Y102.384 E.60194
G1 X85.81 Y103.146 E.05058
G1 X96.83 Y103.146 E.69803
G1 X98.108 Y103.908 E.09425
